X: 1
T: the Sweet Maid of Glendaruel
O: Scotland
R: march
Z: John Chambers <jc:trillian.mit.edu>
N: Scots Guard p.153
N: BSFC XI-1
M: 2/4
L: 1/8
K: AMix
e \
| "A"A>B cd | e>c Ad    | cA     ec | "E7"cB Be |
|  "A"A>B cd | e>c AB/c/ | "G"d>B GB | "A"BA  A :|
|: g \
| "A"fe "(D)"a>f | "A"ec Ag    |    fe  ac | "E7"cB Bg |
| "A"fe [1 a>f [2 "D"fd | "A"ec AB/c/ | "G"d>B GB | "A"BA  A :|
